icon-themes/colibre_svg/vcl/res/magnify.svg

<svg viewBox="0 0 256 256" xmlns="http://www.w3.org/2000/svg"><path d="m112 40c-39.669745 0-72 32.33026-72 72s32.330255 72 72 72h.016c13.46799-.0272 26.2327-4.5813 37.57813-11.65625l39.95312 41.21875 5.74962 2.4375h12.70313l8-8v-12.17187l-2.39062-5.70313-41.26563-40.48438c7.08395-11.36556 11.64421-24.15081 11.65625-37.64062 0-39.66974-32.33026-72-72-72zm0 24c26.60442 0 48 21.39558 48 48s-21.39558 48-48 48c-26.604424 0-48-21.39558-48-48s21.395575-48 48-48z" fill="#fff"/><path d="m112 48c-35.346224 0-64 28.65378-64 64s28.653776 64 64 64c14.19835-.0288 27.98412-4.77771 39.1875-13.5l44.1054 45.5h12.7071v-12.16472l-45.46875-44.61653c8.71765-11.21588 13.45607-25.01335 13.46875-39.21875 0-35.34622-28.65378-64-64-64zm0 8c30.92794 0 56 25.07205 56 56 0 30.92794-25.07206 56-56 56-30.927946 0-56-25.07206-56-56 0-30.92795 25.072054-56 56-56z"/></svg>

<svg xmlns="http://www.w3.org/2000/svg" viewBox="0 0 256 256">
  <path
     style="fill:#ffffff"
     d="m 112,40 c -39.669745,0 -72,32.33026 -72,72 0,39.66974 32.330255,72 72,72 h 0.016 c 13.46799,-0.0272 26.2327,-4.5813 37.57813,-11.65625 L 189.54725,213.5625 195.29687,216 H 208 l 8,-8 V 195.82813 L 213.60938,190.125 172.34375,149.64062 C 179.4277,138.27506 183.98796,125.48981 184,112 184,72.33026 151.66974,40 112,40 Z m 0,24 c 26.60442,0 48,21.39558 48,48 0,26.60442 -21.39558,48 -48,48 -26.604424,0 -48,-21.39558 -48,-48 0,-26.60442 21.395575,-48 48,-48 z"
     />
  <path
     style="fill:#000000"
     d="m 112,48 c -35.346224,0 -64,28.65378 -64,64 0,35.34622 28.653776,64 64,64 14.19835,-0.0288 27.98412,-4.77771 39.1875,-13.5 L 195.2929,208 H 208 V 195.83528 L 162.53125,151.21875 C 171.2489,140.00287 175.98732,126.2054 176,112 176,76.65378 147.34622,48 112,48 Z m 0,8 c 30.92794,0 56,25.07205 56,56 0,30.92794 -25.07206,56 -56,56 -30.927946,0 -56,-25.07206 -56,-56 0,-30.92795 25.072054,-56 56,-56 z"
     />
</svg>
